X:18459
T:Waltz. CJF.038
M:3/4
L:1/8
Q:160
S: C.J.Fox MS, 1829/33, Beverley,E.Yorks.
R:Waltz
O:England
A:East Yorkshire
B:Kidson Coll.Mitchell Lib.M1805
Z:P J Headford 2000
K:G
B2B2B2|BABcd2|dcA4|cBG4|A2A2A2|\
A^GABc2|F2F2FA|G4:|:!FA|d4^cd|Adfda2|
(af).d.A(fd)|d^cc2Ac|e3fge|bagfed|\
{d/}^c2A>ge>c|d4:|:!d>c|BzBzBz|AzAzAz|
G3ABG|A2d3c|BzBzBz|AzAzAz|G3BAF|G4:|]


